X:51
T:Valse de Joen Bernardo
C:Floutard
M:3/4
L:1/4
K:G
d|:e2d|G2d|e e/d/ c/B/|dAc|\
d2c|A2c|d d/c/ B/A/|1 G2d:|2 G3||
|:Bd ce eg|d2f2 ce|\
d2f2 ce|B2d2 Bd|\
c2e2 Bd|B2d2 Ac|1 Bd Bd Ac|\
G3B3:|2 G2B2A|G2d||
